X:1
T:Holmfirth, CMD
T:Holmfirth, CMD
T:Benjamin Gill, 1905
T:Public Domain Courtesy of the Cyber Hymnal™
C:Benjamin Gill, 1905
Z:Public Domain
Z:Courtesy of the Cyber Hymnal™
%%score ( 1 2 ) ( 3 4 )
L:1/8
Q:1/4=110
M:4/4
K:C
V:1 treble 
V:2 treble 
V:3 bass 
V:4 bass 
V:1
 [CE]2 [CE][DF] [EG]2 G2 | [CA]2 [FB]2 [Ec]3 [DB] | [CA]2 [EG]2 [DF]2 [CE]2 | [CE]4 [B,D]4 | %4
 [CE]2 [CE][DF] [EG]2 G2 | [FA]2 [FB]2 [Ec]3 [EB] | [EA]2 [GA]2 [Fd]2 [^Fc]2 | B8 | %8
 [Ec]2 [Ec][Ec] [GB]2 [FA]2 | [FA]2 [EG]2 [EG]3 [EG] | [FA]2 A2 [Ae]2 [Ad]2 | (c4 B4) | %12
 [Ec]2 [Ec][Ec] [EB]2 [FA]2 | [FA]2 [EG]2 [EG]2 [Gc]2 | [Ae]2 [Ad]2 [Gc]2 [FB]2 | [Ec]8 |] %16
V:2
 x6 G2 | x8 | x8 | x8 | x8 | x8 | x8 | (G4 F4) | x8 | x8 | x8 | G8 | x8 | x8 | x8 | x8 |] %16
V:3
 [C,G,]2 [C,G,][C,G,] [C,C]2 [E,C]2 | [F,A,]2 [D,G,]2 [C,G,]3 [E,^G,] | %2
 [F,A,]2 [^C,_B,]2 [D,A,]2 G,2 | G,8 | [C,G,]2 [C,G,][C,G,] [C,C]2 [E,C]2 | %5
 [F,C]2 [D,D]2 [A,C]3 [^G,D] | [A,C]2 [A,^C]2 [D,D]2 [D,D]2 | [G,D]8 | %8
 [C,C]2 [C,G,][C,G,] (F,G,) (A,B,) | [C,C]2 [C,C]2 [C,C]3 [C,_B,] | %10
 [F,A,]2 [F,C]2 [^F,A,]2 [F,D]2 | (E4 D4) | [A,C]2 [A,C][A,C] [G,C]2 [F,C]2 | %13
 [C,C]2 [C,C]2 [C,C]2 [E,C]2 | [F,C]2 [F,D]2 [G,E]2 [G,D]2 | [C,C]8 |] %16
V:4
 x8 | x8 | x6 (E,F,) | x8 | x8 | x8 | x8 | x8 | x4 C,2 C,2 | x8 | x8 | G,8 | x8 | x8 | x8 | x8 |] %16

